assets/img/braze_icons/battery-low.svg

<svg fill="none" height="24" viewBox="0 0 24 24" width="24" xmlns="http://www.w3.org/2000/svg"><g fill="#801ed7"><path clip-rule="evenodd" d="m6.7587 5h7.4826c.805-.00001 1.4693-.00002 2.0105.0442.5621.04592 1.0788.14448 1.5642.39178.7526.38349 1.3645.99541 1.748 1.74806.2473.48534.3459 1.00204.3918 1.56414.0442.54119.0442 1.20554.0442 2.01052v2.4826c0 .805 0 1.4693-.0442 2.0105-.0459.5621-.1445 1.0788-.3918 1.5642-.3835.7526-.9954 1.3645-1.748 1.748-.4854.2473-1.0021.3459-1.5642.3918-.5412.0442-1.2055.0442-2.0105.0442h-7.48257c-.80499 0-1.46935 0-2.01055-.0442-.5621-.0459-1.0788-.1445-1.56414-.3918-.75265-.3835-1.36457-.9954-1.74806-1.748-.2473-.4854-.34586-1.0021-.39178-1.5642-.044221-.5412-.044212-1.2055-.0442-2.0105v-2.4826c-.000012-.80497-.000021-1.46934.0442-2.01052.04592-.5621.14448-1.0788.39178-1.56414.38349-.75265.99541-1.36457 1.74806-1.74806.48534-.2473 1.00204-.34586 1.56414-.39178.54118-.04422 1.20557-.04421 2.01052-.0442zm.7413 5c0-.55228-.44771-1-1-1-.55228 0-1 .44772-1 1v4c0 .5523.44772 1 1 1 .55229 0 1-.4477 1-1z" fill-rule="evenodd"/><path d="m22 10c.5523 0 1 .4477 1 1v2c0 .5523-.4477 1-1 1s-1-.4477-1-1v-2c0-.5523.4477-1 1-1z"/></g></svg>

<svg width="24" height="24" viewBox="0 0 24 24" fill="none" xmlns="http://www.w3.org/2000/svg">
<path fill-rule="evenodd" clip-rule="evenodd" d="M6.7587 5H14.2413C15.0463 4.99999 15.7106 4.99998 16.2518 5.0442C16.8139 5.09012 17.3306 5.18868 17.816 5.43598C18.5686 5.81947 19.1805 6.43139 19.564 7.18404C19.8113 7.66938 19.9099 8.18608 19.9558 8.74818C20 9.28937 20 9.95372 20 10.7587V13.2413C20 14.0463 20 14.7106 19.9558 15.2518C19.9099 15.8139 19.8113 16.3306 19.564 16.816C19.1805 17.5686 18.5686 18.1805 17.816 18.564C17.3306 18.8113 16.8139 18.9099 16.2518 18.9558C15.7106 19 15.0463 19 14.2413 19H6.75873C5.95374 19 5.28938 19 4.74818 18.9558C4.18608 18.9099 3.66938 18.8113 3.18404 18.564C2.43139 18.1805 1.81947 17.5686 1.43598 16.816C1.18868 16.3306 1.09012 15.8139 1.0442 15.2518C0.999979 14.7106 0.999988 14.0463 1 13.2413V10.7587C0.999988 9.95373 0.999979 9.28936 1.0442 8.74818C1.09012 8.18608 1.18868 7.66938 1.43598 7.18404C1.81947 6.43139 2.43139 5.81947 3.18404 5.43598C3.66938 5.18868 4.18608 5.09012 4.74818 5.0442C5.28936 4.99998 5.95375 4.99999 6.7587 5ZM7.5 10C7.5 9.44772 7.05229 9 6.5 9C5.94772 9 5.5 9.44772 5.5 10V14C5.5 14.5523 5.94772 15 6.5 15C7.05229 15 7.5 14.5523 7.5 14V10Z" fill="#801ED7"/>
<path d="M22 10C22.5523 10 23 10.4477 23 11V13C23 13.5523 22.5523 14 22 14C21.4477 14 21 13.5523 21 13V11C21 10.4477 21.4477 10 22 10Z" fill="#801ED7"/>
</svg>
